X:17
T: Musikanten-Vierzeiler 2, S. 70
N: S0080
O: Luxemburg
S: Die Bauernhochzeit in frheren Zeiten]
R: Brautlied]
M: 2/4
L: 1/16
K: F
 | A3FG2B2 | G3FG2A2 |
B3AB2c2 | A2G2F4 |
A3FA2B2 | G3FG2A2 |
c3AB2G2 | F2E2F2z2

@@@ Tune index: 8071
